assets/icons/qvision/person_add_disabled.svg

<svg xmlns="http://www.w3.org/2000/svg" height="24" viewBox="0 0 24 24" width="24"><path d="M0 0h24v24H0V0z" fill="none"/><circle cx="15" cy="8" r="4"/><path d="M23 20v-2c0-2.3-4.1-3.7-6.9-3.9l6 5.9h.9zm-11.6-5.5C9.2 15.1 7 16.3 7 18v2h9.9l4 4 1.3-1.3-21-20.9L0 3.1l4 4V10H1v2h3v3h2v-3h2.9l2.5 2.5zM6 10v-.9l.9.9H6z"/></svg>

<svg width="24" height="24" viewBox="0 0 24 24" fill="none" xmlns="http://www.w3.org/2000/svg">
<g clip-path="url(#clip0_147_1920)">
<path d="M15 12C17.2091 12 19 10.2091 19 8C19 5.79086 17.2091 4 15 4C12.7909 4 11 5.79086 11 8C11 10.2091 12.7909 12 15 12Z" fill="#323232"/>
<path d="M23 20V18C23 15.7 18.9 14.3 16.1 14.1L22.1 20H23ZM11.4 14.5C9.2 15.1 7 16.3 7 18V20H16.9L20.9 24L22.2 22.7L1.2 1.8L0 3.1L4 7.1V10H1V12H4V15H6V12H8.9L11.4 14.5ZM6 10V9.1L6.9 10H6Z" fill="#323232"/>
</g>
<defs>
<clipPath id="clip0_147_1920">
<rect width="24" height="24" fill="white"/>
</clipPath>
</defs>
</svg>
